report_00007_2020-12-11T15:55:29.892Z/cumulative-layout-shift/comparison/line/11_vs_12.svg

<svg width="640" height="500" xmlns="http://www.w3.org/2000/svg" xmlns:xlink="http://www.w3.org/1999/xlink"><path fill="#fff" d="M0 0h640v500H0z"/><defs><path id="d" stroke-width=".222" stroke="currentColor" d="M-1-1h2v2h-2z"/><path id="b" stroke-width=".222" stroke="currentColor" d="M0-1.33l-1.33 2h2.66z"/><path id="f" stroke-width=".222" stroke="currentColor" d="M0 1.33L1.265.411.782-1.067l-1.564-.009-.483 1.487z"/><use xlink:href="#b" id="c" stroke="currentColor" transform="rotate(180)"/><use xlink:href="#d" id="e" stroke="currentColor" transform="rotate(45)"/><circle id="a" stroke-width=".222" stroke="currentColor" cx="0" cy="0" r="1"/></defs><g fill="none" color="#000" stroke="currentColor"><path stroke="#000" d="M62.2 372.7h9m543.8 0h-9"/><text transform="translate(53.9 376.6)" stroke="none" fill="#000" font-family="Arial" font-size="12" text-anchor="end"><tspan>0.05</tspan></text></g><g fill="none" color="#000" stroke="currentColor"><path stroke="#000" d="M62.2 317.8h9m543.8 0h-9"/><text transform="translate(53.9 321.7)" stroke="none" fill="#000" font-family="Arial" font-size="12" text-anchor="end"><tspan>0.1</tspan></text></g><g fill="none" color="#000" stroke="currentColor"><path stroke="#000" d="M62.2 262.9h9m543.8 0h-9"/><text transform="translate(53.9 266.8)" stroke="none" fill="#000" font-family="Arial" font-size="12" text-anchor="end"><tspan>0.15</tspan></text></g><g fill="none" color="#000" stroke="currentColor"><path stroke="#000" d="M62.2 208h9m543.8 0h-9"/><text transform="translate(53.9 211.9)" stroke="none" fill="#000" font-family="Arial" font-size="12" text-anchor="end"><tspan>0.2</tspan></text></g><g fill="none" color="#000" stroke="currentColor"><path stroke="#000" d="M62.2 153.1h9m543.8 0h-9"/><text transform="translate(53.9 157)" stroke="none" fill="#000" font-family="Arial" font-size="12" text-anchor="end"><tspan>0.25</tspan></text></g><g fill="none" color="#000" stroke="currentColor"><path stroke="#000" d="M62.2 98.3h9m543.8 0h-9"/><text transform="translate(53.9 102.2)" stroke="none" fill="#000" font-family="Arial" font-size="12" text-anchor="end"><tspan>0.3</tspan></text></g><g fill="none" color="#000" stroke="currentColor"><path stroke="#000" d="M62.2 43.4h9m543.8 0h-9"/><text transform="translate(53.9 47.3)" stroke="none" fill="#000" font-family="Arial" font-size="12" text-anchor="end"><tspan>0.35</tspan></text></g><g fill="none" color="#000" stroke="currentColor"><path stroke="#000" d="M62.2 392v-9m0-364.9v9"/><text transform="translate(62.2 413.9)" stroke="none" fill="#000" font-family="Arial" font-size="12" text-anchor="middle"><tspan>0</tspan></text></g><g fill="none" color="#000" stroke="currentColor"><path stroke="#000" d="M118 392v-9m0-364.9v9"/><text transform="translate(118 413.9)" stroke="none" fill="#000" font-family="Arial" font-size="12" text-anchor="middle"><tspan>10</tspan></text></g><g fill="none" color="#000" stroke="currentColor"><path stroke="#000" d="M173.9 392v-9m0-364.9v9"/><text transform="translate(173.9 413.9)" stroke="none" fill="#000" font-family="Arial" font-size="12" text-anchor="middle"><tspan>20</tspan></text></g><g fill="none" color="#000" stroke="currentColor"><path stroke="#000" d="M229.7 392v-9m0-364.9v9"/><text transform="translate(229.7 413.9)" stroke="none" fill="#000" font-family="Arial" font-size="12" text-anchor="middle"><tspan>30</tspan></text></g><g fill="none" color="#000" stroke="currentColor"><path stroke="#000" d="M285.6 392v-9m0-364.9v9"/><text transform="translate(285.6 413.9)" stroke="none" fill="#000" font-family="Arial" font-size="12" text-anchor="middle"><tspan>40</tspan></text></g><g fill="none" color="#000" stroke="currentColor"><path stroke="#000" d="M341.4 392v-9m0-364.9v9"/><text transform="translate(341.4 413.9)" stroke="none" fill="#000" font-family="Arial" font-size="12" text-anchor="middle"><tspan>50</tspan></text></g><g fill="none" color="#000" stroke="currentColor"><path stroke="#000" d="M397.2 392v-9m0-364.9v9"/><text transform="translate(397.2 413.9)" stroke="none" fill="#000" font-family="Arial" font-size="12" text-anchor="middle"><tspan>60</tspan></text></g><g fill="none" color="#000" stroke="currentColor"><path stroke="#000" d="M453.1 392v-9m0-364.9v9"/><text transform="translate(453.1 413.9)" stroke="none" fill="#000" font-family="Arial" font-size="12" text-anchor="middle"><tspan>70</tspan></text></g><g fill="none" color="#000" stroke="currentColor"><path stroke="#000" d="M508.9 392v-9m0-364.9v9"/><text transform="translate(508.9 413.9)" stroke="none" fill="#000" font-family="Arial" font-size="12" text-anchor="middle"><tspan>80</tspan></text></g><g fill="none" color="#000" stroke="currentColor"><path stroke="#000" d="M564.7 392v-9m0-364.9v9"/><text transform="translate(564.7 413.9)" stroke="none" fill="#000" font-family="Arial" font-size="12" text-anchor="middle"><tspan>90</tspan></text></g><path stroke="#000" d="M62.2 18.1V392H615V18.1H62.2z" fill="none" color="#000"/><text transform="translate(512.5 431.9)" stroke="none" fill="#000" font-family="Arial" font-size="12" text-anchor="end" color="#000"><tspan>pages+cached+noexternal+nofonts+nosvg+noimg</tspan></text><path stroke="#9400D3" d="M520.8 428H563M62.2 211.7h11.2L79 77.6l5.5 134.1h5.6l5.6 173.1 5.6-173.1h33.5l5.6 173.1L146 77.6l5.5 274.1 5.6-140h5.6l5.6-9.5 5.6 182.6 5.6-173.1 5.5-9.5h11.2l5.6 9.5h5.6l5.6-9.5 5.5 9.5h5.6l5.6 140 5.6 33.1 5.6-182.6h5.6l5.6 9.5 5.5-33.2 5.6 33.2h5.6l5.6-105.4 5.6 105.4h16.7l5.6-33.2 5.6 173.2 5.6 33.1 5.6-173.1 5.5-9.5 5.6 9.5h5.6l5.6 173.1 5.6-173.1 5.6-9.5 5.5 9.5h11.2l5.6-134.1 5.6 124.6 5.6 9.5 5.5 140 5.6-149.5 5.6 182.6 5.6-307.2 5.6 307.2 5.6-182.6 5.5-33.1 5.6 215.7 5.6-206.3 5.6 33.2 5.6-9.5 5.6-23.7h5.6l5.5 206.3 5.6-215.7 5.6 182.6 5.6-140 5.6-9.5 5.6 182.6 5.5-173.1 5.6-134.1 5.6 134.1 5.6 173.1h5.6l5.6-307.2 5.5 134.1h11.2l5.6-42.6 5.6-91.5h5.6l5.5 307.2 5.6-206.3 5.6 33.2H598.2l5.6 140 5.6-140 5.6 173.1" fill="none" color="#000"/><text transform="translate(512.5 449.9)" stroke="none" fill="#000" font-family="Arial" font-size="12" text-anchor="end" color="#000"><tspan>pages+cached+noexternal+nofonts+nosvg+noimg+nocss</tspan></text><path stroke="#009E73" d="M520.8 446H563M62.2 175.8l5.6.9h5.6L79 25.3l5.5 151.4 5.6-.9h5.6l5.6.9h11.2L118 25.3h5.6l5.6 150.5 5.6.9h16.7l5.6-.9 5.6.9 5.6-.9 5.6.9 5.6-151.4 5.5 151.4h11.2l5.6-.9 5.6.9h5.6l5.5-151.4 5.6 150.5 5.6.9 5.6-.9 5.6.9h5.6l5.6-.9 5.5.9h39.1l5.6-151.4 5.6 151.4h16.7l5.6-151.4 5.6 150.5h5.6l5.6.9h39.1l5.5-.9 5.6.9h11.2L414 25.3l5.6 150.5 5.5.9 5.6-151.4 5.6 151.4h27.9l5.6-.9 5.6.9H548l5.6-.9 5.6.9h5.5l5.6-.9 5.6.9H615" fill="none" color="#000"/><text transform="translate(512.5 467.9)" stroke="none" fill="#000" font-family="Arial" font-size="12" text-anchor="end" color="#000"><tspan>score p10=0.1</tspan></text><path stroke="#56B4E9" d="M520.8 464H563M62.2 317.8H615" fill="none" color="#000"/><g><text transform="translate(512.5 485.9)" stroke="none" fill="#000" font-family="Arial" font-size="12" text-anchor="end" color="#000"><tspan>score median=0.25</tspan></text><path stroke="#E69F00" d="M520.8 482H563M62.2 153.1H615" fill="none" color="#000"/></g><g fill="none" color="#000" stroke="currentColor"><path stroke="#000" d="M62.2 18.1V392H615V18.1H62.2z"/></g></svg>

<?xml version="1.0" encoding="utf-8"  standalone="no"?>
<svg 
 width="640" height="500"
 viewBox="0 0 640 500"
 xmlns="http://www.w3.org/2000/svg"
 xmlns:xlink="http://www.w3.org/1999/xlink"
>

<title>Gnuplot</title>
<desc>Produced by GNUPLOT 5.4 patchlevel 0 </desc>

<g id="gnuplot_canvas">

<rect x="0" y="0" width="640" height="500" fill="#ffffff"/>
<defs>

	<circle id='gpDot' r='0.5' stroke-width='0.5' stroke='currentColor'/>
	<path id='gpPt0' stroke-width='0.222' stroke='currentColor' d='M-1,0 h2 M0,-1 v2'/>
	<path id='gpPt1' stroke-width='0.222' stroke='currentColor' d='M-1,-1 L1,1 M1,-1 L-1,1'/>
	<path id='gpPt2' stroke-width='0.222' stroke='currentColor' d='M-1,0 L1,0 M0,-1 L0,1 M-1,-1 L1,1 M-1,1 L1,-1'/>
	<rect id='gpPt3' stroke-width='0.222' stroke='currentColor' x='-1' y='-1' width='2' height='2'/>
	<rect id='gpPt4' stroke-width='0.222' stroke='currentColor' fill='currentColor' x='-1' y='-1' width='2' height='2'/>
	<circle id='gpPt5' stroke-width='0.222' stroke='currentColor' cx='0' cy='0' r='1'/>
	<use xlink:href='#gpPt5' id='gpPt6' fill='currentColor' stroke='none'/>
	<path id='gpPt7' stroke-width='0.222' stroke='currentColor' d='M0,-1.33 L-1.33,0.67 L1.33,0.67 z'/>
	<use xlink:href='#gpPt7' id='gpPt8' fill='currentColor' stroke='none'/>
	<use xlink:href='#gpPt7' id='gpPt9' stroke='currentColor' transform='rotate(180)'/>
	<use xlink:href='#gpPt9' id='gpPt10' fill='currentColor' stroke='none'/>
	<use xlink:href='#gpPt3' id='gpPt11' stroke='currentColor' transform='rotate(45)'/>
	<use xlink:href='#gpPt11' id='gpPt12' fill='currentColor' stroke='none'/>
	<path id='gpPt13' stroke-width='0.222' stroke='currentColor' d='M0,1.330 L1.265,0.411 L0.782,-1.067 L-0.782,-1.076 L-1.265,0.411 z'/>
	<use xlink:href='#gpPt13' id='gpPt14' fill='currentColor' stroke='none'/>
	<filter id='textbox' filterUnits='objectBoundingBox' x='0' y='0' height='1' width='1'>
	  <feFlood flood-color='#FFFFFF' flood-opacity='1' result='bgnd'/>
	  <feComposite in='SourceGraphic' in2='bgnd' operator='atop'/>
	</filter>
	<filter id='greybox' filterUnits='objectBoundingBox' x='0' y='0' height='1' width='1'>
	  <feFlood flood-color='lightgrey' flood-opacity='1' result='grey'/>
	  <feComposite in='SourceGraphic' in2='grey' operator='atop'/>
	</filter>
</defs>
<g fill="none" color="#FFFFFF" stroke="black" stroke-width="1.00" stroke-linecap="butt" stroke-linejoin="miter">
</g>
<g fill="none" color="black" stroke="currentColor" stroke-width="1.00" stroke-linecap="butt" stroke-linejoin="miter">
	<path stroke='black'  d='M62.2,372.7 L71.2,372.7 M615.0,372.7 L606.0,372.7  '/>	<g transform="translate(53.9,376.6)" stroke="none" fill="black" font-family="Arial" font-size="12.00"  text-anchor="end">
		<text><tspan font-family="Arial" > 0.05</tspan></text>
	</g>
</g>
<g fill="none" color="black" stroke="currentColor" stroke-width="1.00" stroke-linecap="butt" stroke-linejoin="miter">
	<path stroke='black'  d='M62.2,317.8 L71.2,317.8 M615.0,317.8 L606.0,317.8  '/>	<g transform="translate(53.9,321.7)" stroke="none" fill="black" font-family="Arial" font-size="12.00"  text-anchor="end">
		<text><tspan font-family="Arial" > 0.1</tspan></text>
	</g>
</g>
<g fill="none" color="black" stroke="currentColor" stroke-width="1.00" stroke-linecap="butt" stroke-linejoin="miter">
	<path stroke='black'  d='M62.2,262.9 L71.2,262.9 M615.0,262.9 L606.0,262.9  '/>	<g transform="translate(53.9,266.8)" stroke="none" fill="black" font-family="Arial" font-size="12.00"  text-anchor="end">
		<text><tspan font-family="Arial" > 0.15</tspan></text>
	</g>
</g>
<g fill="none" color="black" stroke="currentColor" stroke-width="1.00" stroke-linecap="butt" stroke-linejoin="miter">
	<path stroke='black'  d='M62.2,208.0 L71.2,208.0 M615.0,208.0 L606.0,208.0  '/>	<g transform="translate(53.9,211.9)" stroke="none" fill="black" font-family="Arial" font-size="12.00"  text-anchor="end">
		<text><tspan font-family="Arial" > 0.2</tspan></text>
	</g>
</g>
<g fill="none" color="black" stroke="currentColor" stroke-width="1.00" stroke-linecap="butt" stroke-linejoin="miter">
	<path stroke='black'  d='M62.2,153.1 L71.2,153.1 M615.0,153.1 L606.0,153.1  '/>	<g transform="translate(53.9,157.0)" stroke="none" fill="black" font-family="Arial" font-size="12.00"  text-anchor="end">
		<text><tspan font-family="Arial" > 0.25</tspan></text>
	</g>
</g>
<g fill="none" color="black" stroke="currentColor" stroke-width="1.00" stroke-linecap="butt" stroke-linejoin="miter">
	<path stroke='black'  d='M62.2,98.3 L71.2,98.3 M615.0,98.3 L606.0,98.3  '/>	<g transform="translate(53.9,102.2)" stroke="none" fill="black" font-family="Arial" font-size="12.00"  text-anchor="end">
		<text><tspan font-family="Arial" > 0.3</tspan></text>
	</g>
</g>
<g fill="none" color="black" stroke="currentColor" stroke-width="1.00" stroke-linecap="butt" stroke-linejoin="miter">
	<path stroke='black'  d='M62.2,43.4 L71.2,43.4 M615.0,43.4 L606.0,43.4  '/>	<g transform="translate(53.9,47.3)" stroke="none" fill="black" font-family="Arial" font-size="12.00"  text-anchor="end">
		<text><tspan font-family="Arial" > 0.35</tspan></text>
	</g>
</g>
<g fill="none" color="black" stroke="currentColor" stroke-width="1.00" stroke-linecap="butt" stroke-linejoin="miter">
	<path stroke='black'  d='M62.2,392.0 L62.2,383.0 M62.2,18.1 L62.2,27.1  '/>	<g transform="translate(62.2,413.9)" stroke="none" fill="black" font-family="Arial" font-size="12.00"  text-anchor="middle">
		<text><tspan font-family="Arial" > 0</tspan></text>
	</g>
</g>
<g fill="none" color="black" stroke="currentColor" stroke-width="1.00" stroke-linecap="butt" stroke-linejoin="miter">
	<path stroke='black'  d='M118.0,392.0 L118.0,383.0 M118.0,18.1 L118.0,27.1  '/>	<g transform="translate(118.0,413.9)" stroke="none" fill="black" font-family="Arial" font-size="12.00"  text-anchor="middle">
		<text><tspan font-family="Arial" > 10</tspan></text>
	</g>
</g>
<g fill="none" color="black" stroke="currentColor" stroke-width="1.00" stroke-linecap="butt" stroke-linejoin="miter">
	<path stroke='black'  d='M173.9,392.0 L173.9,383.0 M173.9,18.1 L173.9,27.1  '/>	<g transform="translate(173.9,413.9)" stroke="none" fill="black" font-family="Arial" font-size="12.00"  text-anchor="middle">
		<text><tspan font-family="Arial" > 20</tspan></text>
	</g>
</g>
<g fill="none" color="black" stroke="currentColor" stroke-width="1.00" stroke-linecap="butt" stroke-linejoin="miter">
	<path stroke='black'  d='M229.7,392.0 L229.7,383.0 M229.7,18.1 L229.7,27.1  '/>	<g transform="translate(229.7,413.9)" stroke="none" fill="black" font-family="Arial" font-size="12.00"  text-anchor="middle">
		<text><tspan font-family="Arial" > 30</tspan></text>
	</g>
</g>
<g fill="none" color="black" stroke="currentColor" stroke-width="1.00" stroke-linecap="butt" stroke-linejoin="miter">
	<path stroke='black'  d='M285.6,392.0 L285.6,383.0 M285.6,18.1 L285.6,27.1  '/>	<g transform="translate(285.6,413.9)" stroke="none" fill="black" font-family="Arial" font-size="12.00"  text-anchor="middle">
		<text><tspan font-family="Arial" > 40</tspan></text>
	</g>
</g>
<g fill="none" color="black" stroke="currentColor" stroke-width="1.00" stroke-linecap="butt" stroke-linejoin="miter">
	<path stroke='black'  d='M341.4,392.0 L341.4,383.0 M341.4,18.1 L341.4,27.1  '/>	<g transform="translate(341.4,413.9)" stroke="none" fill="black" font-family="Arial" font-size="12.00"  text-anchor="middle">
		<text><tspan font-family="Arial" > 50</tspan></text>
	</g>
</g>
<g fill="none" color="black" stroke="currentColor" stroke-width="1.00" stroke-linecap="butt" stroke-linejoin="miter">
	<path stroke='black'  d='M397.2,392.0 L397.2,383.0 M397.2,18.1 L397.2,27.1  '/>	<g transform="translate(397.2,413.9)" stroke="none" fill="black" font-family="Arial" font-size="12.00"  text-anchor="middle">
		<text><tspan font-family="Arial" > 60</tspan></text>
	</g>
</g>
<g fill="none" color="black" stroke="currentColor" stroke-width="1.00" stroke-linecap="butt" stroke-linejoin="miter">
	<path stroke='black'  d='M453.1,392.0 L453.1,383.0 M453.1,18.1 L453.1,27.1  '/>	<g transform="translate(453.1,413.9)" stroke="none" fill="black" font-family="Arial" font-size="12.00"  text-anchor="middle">
		<text><tspan font-family="Arial" > 70</tspan></text>
	</g>
</g>
<g fill="none" color="black" stroke="currentColor" stroke-width="1.00" stroke-linecap="butt" stroke-linejoin="miter">
	<path stroke='black'  d='M508.9,392.0 L508.9,383.0 M508.9,18.1 L508.9,27.1  '/>	<g transform="translate(508.9,413.9)" stroke="none" fill="black" font-family="Arial" font-size="12.00"  text-anchor="middle">
		<text><tspan font-family="Arial" > 80</tspan></text>
	</g>
</g>
<g fill="none" color="black" stroke="currentColor" stroke-width="1.00" stroke-linecap="butt" stroke-linejoin="miter">
	<path stroke='black'  d='M564.7,392.0 L564.7,383.0 M564.7,18.1 L564.7,27.1  '/>	<g transform="translate(564.7,413.9)" stroke="none" fill="black" font-family="Arial" font-size="12.00"  text-anchor="middle">
		<text><tspan font-family="Arial" > 90</tspan></text>
	</g>
</g>
<g fill="none" color="black" stroke="currentColor" stroke-width="1.00" stroke-linecap="butt" stroke-linejoin="miter">
</g>
<g fill="none" color="black" stroke="currentColor" stroke-width="1.00" stroke-linecap="butt" stroke-linejoin="miter">
	<path stroke='black'  d='M62.2,18.1 L62.2,392.0 L615.0,392.0 L615.0,18.1 L62.2,18.1 Z  '/></g>
<g fill="none" color="black" stroke="currentColor" stroke-width="1.00" stroke-linecap="butt" stroke-linejoin="miter">
</g>
	<g id="gnuplot_plot_1" ><title>pages+cached+noexternal+nofonts+nosvg+noimg</title>
<g fill="none" color="black" stroke="currentColor" stroke-width="1.00" stroke-linecap="butt" stroke-linejoin="miter">
	<g transform="translate(512.5,431.9)" stroke="none" fill="black" font-family="Arial" font-size="12.00"  text-anchor="end">
		<text><tspan font-family="Arial" >pages+cached+noexternal+nofonts+nosvg+noimg</tspan></text>
	</g>
</g>
<g fill="none" color="black" stroke="currentColor" stroke-width="1.00" stroke-linecap="butt" stroke-linejoin="miter">
	<path stroke='rgb(148,   0, 211)'  d='M520.8,428.0 L563.0,428.0 M62.2,211.7 L67.8,211.7 L73.4,211.7 L79.0,77.6 L84.5,211.7 L90.1,211.7
		L95.7,384.8 L101.3,211.7 L106.9,211.7 L112.5,211.7 L118.0,211.7 L123.6,211.7 L129.2,211.7 L134.8,211.7
		L140.4,384.8 L146.0,77.6 L151.5,351.7 L157.1,211.7 L162.7,211.7 L168.3,202.2 L173.9,384.8 L179.5,211.7
		L185.0,202.2 L190.6,202.2 L196.2,202.2 L201.8,211.7 L207.4,211.7 L213.0,202.2 L218.5,211.7 L224.1,211.7
		L229.7,351.7 L235.3,384.8 L240.9,202.2 L246.5,202.2 L252.1,211.7 L257.6,178.5 L263.2,211.7 L268.8,211.7
		L274.4,106.3 L280.0,211.7 L285.6,211.7 L291.1,211.7 L296.7,211.7 L302.3,178.5 L307.9,351.7 L313.5,384.8
		L319.1,211.7 L324.6,202.2 L330.2,211.7 L335.8,211.7 L341.4,384.8 L347.0,211.7 L352.6,202.2 L358.1,211.7
		L363.7,211.7 L369.3,211.7 L374.9,77.6 L380.5,202.2 L386.1,211.7 L391.6,351.7 L397.2,202.2 L402.8,384.8
		L408.4,77.6 L414.0,384.8 L419.6,202.2 L425.1,169.1 L430.7,384.8 L436.3,178.5 L441.9,211.7 L447.5,202.2
		L453.1,178.5 L458.7,178.5 L464.2,384.8 L469.8,169.1 L475.4,351.7 L481.0,211.7 L486.6,202.2 L492.2,384.8
		L497.7,211.7 L503.3,77.6 L508.9,211.7 L514.5,384.8 L520.1,384.8 L525.7,77.6 L531.2,211.7 L536.8,211.7
		L542.4,211.7 L548.0,169.1 L553.6,77.6 L559.2,77.6 L564.7,384.8 L570.3,178.5 L575.9,211.7 L581.5,211.7
		L587.1,211.7 L592.7,211.7 L598.2,211.7 L603.8,351.7 L609.4,211.7 L615.0,384.8  '/></g>
	</g>
	<g id="gnuplot_plot_2" ><title>pages+cached+noexternal+nofonts+nosvg+noimg+nocss</title>
<g fill="none" color="black" stroke="currentColor" stroke-width="1.00" stroke-linecap="butt" stroke-linejoin="miter">
	<g transform="translate(512.5,449.9)" stroke="none" fill="black" font-family="Arial" font-size="12.00"  text-anchor="end">
		<text><tspan font-family="Arial" >pages+cached+noexternal+nofonts+nosvg+noimg+nocss</tspan></text>
	</g>
</g>
<g fill="none" color="black" stroke="currentColor" stroke-width="1.00" stroke-linecap="butt" stroke-linejoin="miter">
	<path stroke='rgb(  0, 158, 115)'  d='M520.8,446.0 L563.0,446.0 M62.2,175.8 L67.8,176.7 L73.4,176.7 L79.0,25.3 L84.5,176.7 L90.1,175.8
		L95.7,175.8 L101.3,176.7 L106.9,176.7 L112.5,176.7 L118.0,25.3 L123.6,25.3 L129.2,175.8 L134.8,176.7
		L140.4,176.7 L146.0,176.7 L151.5,176.7 L157.1,175.8 L162.7,176.7 L168.3,175.8 L173.9,176.7 L179.5,25.3
		L185.0,176.7 L190.6,176.7 L196.2,176.7 L201.8,175.8 L207.4,176.7 L213.0,176.7 L218.5,25.3 L224.1,175.8
		L229.7,176.7 L235.3,175.8 L240.9,176.7 L246.5,176.7 L252.1,175.8 L257.6,176.7 L263.2,176.7 L268.8,176.7
		L274.4,176.7 L280.0,176.7 L285.6,176.7 L291.1,176.7 L296.7,176.7 L302.3,25.3 L307.9,176.7 L313.5,176.7
		L319.1,176.7 L324.6,176.7 L330.2,25.3 L335.8,175.8 L341.4,175.8 L347.0,176.7 L352.6,176.7 L358.1,176.7
		L363.7,176.7 L369.3,176.7 L374.9,176.7 L380.5,176.7 L386.1,176.7 L391.6,175.8 L397.2,176.7 L402.8,176.7
		L408.4,176.7 L414.0,25.3 L419.6,175.8 L425.1,176.7 L430.7,25.3 L436.3,176.7 L441.9,176.7 L447.5,176.7
		L453.1,176.7 L458.7,176.7 L464.2,176.7 L469.8,175.8 L475.4,176.7 L481.0,176.7 L486.6,176.7 L492.2,176.7
		L497.7,176.7 L503.3,176.7 L508.9,176.7 L514.5,176.7 L520.1,176.7 L525.7,176.7 L531.2,176.7 L536.8,176.7
		L542.4,176.7 L548.0,176.7 L553.6,175.8 L559.2,176.7 L564.7,176.7 L570.3,175.8 L575.9,176.7 L581.5,176.7
		L587.1,176.7 L592.7,176.7 L598.2,176.7 L603.8,176.7 L609.4,176.7 L615.0,176.7  '/></g>
	</g>
	<g id="gnuplot_plot_3" ><title>score p10=0.1</title>
<g fill="none" color="black" stroke="currentColor" stroke-width="1.00" stroke-linecap="butt" stroke-linejoin="miter">
	<g transform="translate(512.5,467.9)" stroke="none" fill="black" font-family="Arial" font-size="12.00"  text-anchor="end">
		<text><tspan font-family="Arial" >score p10=0.1</tspan></text>
	</g>
</g>
<g fill="none" color="black" stroke="currentColor" stroke-width="1.00" stroke-linecap="butt" stroke-linejoin="miter">
	<path stroke='rgb( 86, 180, 233)'  d='M520.8,464.0 L563.0,464.0 M62.2,317.8 L67.8,317.8 L73.4,317.8 L79.0,317.8 L84.5,317.8 L90.1,317.8
		L95.7,317.8 L101.3,317.8 L106.9,317.8 L112.5,317.8 L118.0,317.8 L123.6,317.8 L129.2,317.8 L134.8,317.8
		L140.4,317.8 L146.0,317.8 L151.5,317.8 L157.1,317.8 L162.7,317.8 L168.3,317.8 L173.9,317.8 L179.5,317.8
		L185.0,317.8 L190.6,317.8 L196.2,317.8 L201.8,317.8 L207.4,317.8 L213.0,317.8 L218.5,317.8 L224.1,317.8
		L229.7,317.8 L235.3,317.8 L240.9,317.8 L246.5,317.8 L252.1,317.8 L257.6,317.8 L263.2,317.8 L268.8,317.8
		L274.4,317.8 L280.0,317.8 L285.6,317.8 L291.1,317.8 L296.7,317.8 L302.3,317.8 L307.9,317.8 L313.5,317.8
		L319.1,317.8 L324.6,317.8 L330.2,317.8 L335.8,317.8 L341.4,317.8 L347.0,317.8 L352.6,317.8 L358.1,317.8
		L363.7,317.8 L369.3,317.8 L374.9,317.8 L380.5,317.8 L386.1,317.8 L391.6,317.8 L397.2,317.8 L402.8,317.8
		L408.4,317.8 L414.0,317.8 L419.6,317.8 L425.1,317.8 L430.7,317.8 L436.3,317.8 L441.9,317.8 L447.5,317.8
		L453.1,317.8 L458.7,317.8 L464.2,317.8 L469.8,317.8 L475.4,317.8 L481.0,317.8 L486.6,317.8 L492.2,317.8
		L497.7,317.8 L503.3,317.8 L508.9,317.8 L514.5,317.8 L520.1,317.8 L525.7,317.8 L531.2,317.8 L536.8,317.8
		L542.4,317.8 L548.0,317.8 L553.6,317.8 L559.2,317.8 L564.7,317.8 L570.3,317.8 L575.9,317.8 L581.5,317.8
		L587.1,317.8 L592.7,317.8 L598.2,317.8 L603.8,317.8 L609.4,317.8 L615.0,317.8  '/></g>
	</g>
	<g id="gnuplot_plot_4" ><title>score median=0.25</title>
<g fill="none" color="black" stroke="currentColor" stroke-width="1.00" stroke-linecap="butt" stroke-linejoin="miter">
	<g transform="translate(512.5,485.9)" stroke="none" fill="black" font-family="Arial" font-size="12.00"  text-anchor="end">
		<text><tspan font-family="Arial" >score median=0.25</tspan></text>
	</g>
</g>
<g fill="none" color="black" stroke="currentColor" stroke-width="1.00" stroke-linecap="butt" stroke-linejoin="miter">
	<path stroke='rgb(230, 159,   0)'  d='M520.8,482.0 L563.0,482.0 M62.2,153.1 L67.8,153.1 L73.4,153.1 L79.0,153.1 L84.5,153.1 L90.1,153.1
		L95.7,153.1 L101.3,153.1 L106.9,153.1 L112.5,153.1 L118.0,153.1 L123.6,153.1 L129.2,153.1 L134.8,153.1
		L140.4,153.1 L146.0,153.1 L151.5,153.1 L157.1,153.1 L162.7,153.1 L168.3,153.1 L173.9,153.1 L179.5,153.1
		L185.0,153.1 L190.6,153.1 L196.2,153.1 L201.8,153.1 L207.4,153.1 L213.0,153.1 L218.5,153.1 L224.1,153.1
		L229.7,153.1 L235.3,153.1 L240.9,153.1 L246.5,153.1 L252.1,153.1 L257.6,153.1 L263.2,153.1 L268.8,153.1
		L274.4,153.1 L280.0,153.1 L285.6,153.1 L291.1,153.1 L296.7,153.1 L302.3,153.1 L307.9
